images/ico_save.svg

<svg width="339" height="351" viewBox="0 0 339 351" fill="none" xmlns="http://www.w3.org/2000/svg">
<path opacity="0.127987" fill-rule="evenodd" clip-rule="evenodd" d="M171 324C259.918 324 332 251.918 332 163C332 74.0822 259.918 2 171 2C82.0822 2 10 74.0822 10 163C10 251.918 82.0822 324 171 324Z" fill="url(#paint0_linear)"/>
<path fill-rule="evenodd" clip-rule="evenodd" d="M137.156 68H206.844C218.528 68 228 77.5513 228 89.3333V238.667C228 250.449 218.528 260 206.844 260H137.156C125.472 260 116 250.449 116 238.667V89.3333C116 77.5513 125.472 68 137.156 68ZM207 256C216.389 256 224 248.337 224 238.884V89.1163C224 79.6632 216.389 72 207 72H137C127.611 72 120 79.6632 120 89.1163V238.884C120 248.337 127.611 256 137 256H207Z" fill="url(#paint1_linear)"/>
<path fill-rule="evenodd" clip-rule="evenodd" d="M128.125 89H213.875C215.049 89 216 89.9566 216 91.1366V223.863C216 225.043 215.049 226 213.875 226H128.125C126.951 226 126 225.043 126 223.863V91.1366C126 89.9566 126.951 89 128.125 89ZM130 222H212V93H130V222Z" fill="url(#paint2_linear)"/>
<path fill-rule="evenodd" clip-rule="evenodd" d="M159 241.021C159.012 247.64 164.381 253 171 253C174.193 253 177.255 251.727 179.507 249.463C181.76 247.199 183.017 244.13 183 240.937C182.965 234.318 177.577 228.977 170.958 229C164.339 229.023 158.988 234.401 159 241.021ZM162.676 237.595C164.063 234.225 167.351 232.024 171 232.024V232C175.942 232 179.959 235.98 179.999 240.915C180.039 244.559 177.871 247.866 174.511 249.287C171.152 250.709 167.265 249.964 164.671 247.402C162.077 244.839 161.289 240.966 162.676 237.595Z" fill="url(#paint3_linear)"/>
<path d="M140.165 126C140.737 126.003 141.286 125.778 141.693 125.375L164.483 102.556C165.214 101.701 165.165 100.427 164.37 99.6311C163.575 98.8352 162.302 98.786 161.448 99.5181L138.637 122.315C138.016 122.932 137.829 123.863 138.165 124.672C138.5 125.48 139.29 126.005 140.165 126Z" fill="url(#paint4_linear)"/>
<path d="M140.174 149C140.748 149.003 141.3 148.778 141.708 148.373L187.48 102.569C188.215 101.711 188.165 100.432 187.367 99.6334C186.569 98.8346 185.291 98.7852 184.433 99.52L138.639 145.302C138.016 145.921 137.829 146.855 138.165 147.667C138.502 148.478 139.296 149.005 140.174 149Z" fill="url(#paint5_linear)"/>
<path d="M165.154 83H181.846C183.036 83 184 81.8807 184 80.5C184 79.1193 183.036 78 181.846 78H165.154C163.964 78 163 79.1193 163 80.5C163 81.8807 163.964 83 165.154 83Z" fill="url(#paint6_linear)"/>
<path fill-rule="evenodd" clip-rule="evenodd" d="M40 123.256C43.197 122.566 46.2216 121.412 49 119.869V138C49 139.105 49.8954 140 51 140C52.1046 140 53 139.105 53 138V117.251C60.9015 111.222 66 101.706 66 91C66 72.7746 51.2254 58 33 58C14.7746 58 0 72.7746 0 91C0 100.43 3.95534 108.936 10.2975 114.95C10.1089 115.255 10 115.615 10 116V143C10 144.105 10.8954 145 12 145C13.1046 145 14 144.105 14 143V117.985C16.7247 119.907 19.7535 121.427 23 122.458V127C23 128.105 23.8954 129 25 129C26.1046 129 27 128.105 27 127V123.456C28.9457 123.813 30.951 124 33 124C34.0113 124 35.0119 123.955 36 123.865V159C36 160.105 36.8954 161 38 161C39.1046 161 40 160.105 40 159V123.256ZM33 120C49.0163 120 62 107.016 62 91C62 74.9837 49.0163 62 33 62C16.9837 62 4 74.9837 4 91C4 107.016 16.9837 120 33 120ZM12 149C10.8954 149 10 149.895 10 151V162C10 163.105 10.8954 164 12 164C13.1046 164 14 163.105 14 162V151C14 149.895 13.1046 149 12 149ZM51 144C49.8954 144 49 144.895 49 146V149C49 150.105 49.8954 151 51 151C52.1046 151 53 150.105 53 149V146C53 144.895 52.1046 144 51 144ZM23 136C23 134.895 23.8954 134 25 134C26.1046 134 27 134.895 27 136V153C27 154.105 26.1046 155 25 155C23.8954 155 23 154.105 23 153V136ZM33.2297 105C27.6636 105.022 22.6874 101.837 20.3675 97H17.275C16.5708 97 16 96.1046 16 95C16 93.8954 16.5708 93 17.275 93H19.146C18.9987 91.9953 18.9643 90.99 19.0363 90H17.275C16.5708 90 16 89.1046 16 88C16 86.8954 16.5708 86 17.275 86H19.9359C21.0666 83.0795 23.1827 80.5373 26.071 78.885C31.6278 75.7061 38.6537 76.6157 43.1937 81.1017C43.556 81.428 43.7069 81.9249 43.5864 82.3943C43.4659 82.8637 42.9759 83.3837 42.5 83.5C42.4428 83.514 42.3824 83.5298 42.3199 83.5462L42.3191 83.5464C41.8615 83.6663 41.2885 83.8164 41 83.5C38.1801 80.6862 34.3907 80.0492 30.5 81C27.1639 81.8153 25.2602 83.2263 24.0497 86H31.725C32.4292 86 33 86.8954 33 88C33 89.1046 32.4292 90 31.725 90H22.9332C22.8066 91.0316 22.82 92.0372 22.9729 93H31.725C32.4292 93 33 93.8954 33 95C33 96.1046 32.4292 97 31.725 97H24.6102C25.4447 98.1618 26.5751 99.1791 28 100C32.6477 102.678 37.2334 101.708 41 98C41.3116 97.6542 42.4623 97.8899 42.9594 97.9917L43 98C43.4719 98.0963 43.78 98.7259 43.9316 99.1778C44.0831 99.6297 43.9791 100.127 43.6587 100.483C40.9819 103.373 37.195 105.013 33.2297 105Z" fill="url(#paint7_linear)"/>
<path fill-rule="evenodd" clip-rule="evenodd" d="M286.381 51.4426C289.101 50.8701 291.665 49.8721 294 48.5217V63.5C294 64.3284 294.672 65 295.5 65C296.328 65 297 64.3284 297 63.5V46.5L297 46.4954C303.087 41.7367 307 34.3253 307 26C307 11.6406 295.359 0 281 0C266.641 0 255 11.6406 255 26C255 33.4384 258.124 40.1473 263.131 44.8864C263.047 45.0737 263 45.2814 263 45.5V67.5C263 68.3284 263.672 69 264.5 69C265.328 69 266 68.3284 266 67.5V47.2394C268.121 48.7398 270.476 49.9306 273 50.746V54.5C273 55.3284 273.672 56 274.5 56C275.328 56 276 55.3284 276 54.5V51.5197C277.618 51.8349 279.29 52 281 52C281.673 52 282.34 51.9744 283 51.9242V80.3C283 81.2389 283.761 82 284.7 82C285.639 82 286.4 81.2389 286.4 80.3V51.7C286.4 51.6125 286.393 51.5265 286.381 51.4426ZM281 49C293.703 49 304 38.7025 304 26C304 13.2975 293.703 3 281 3C268.297 3 258 13.2975 258 26C258 38.7025 268.297 49 281 49ZM264.5 72C263.672 72 263 72.6716 263 73.5V82.5C263 83.3284 263.672 84 264.5 84C265.328 84 266 83.3284 266 82.5V73.5C266 72.6716 265.328 72 264.5 72ZM295.5 68C294.672 68 294 68.6716 294 69.5V72.5C294 73.3284 294.672 74 295.5 74C296.328 74 297 73.3284 297 72.5V69.5C297 68.6716 296.328 68 295.5 68ZM273 61.5C273 60.6716 273.672 60 274.5 60C275.328 60 276 60.6716 276 61.5V75.5C276 76.3284 275.328 77 274.5 77C273.672 77 273 76.3284 273 75.5V61.5ZM281.385 36.9999C277.044 37.0169 273.152 34.6396 271.24 31H268.976C268.437 31 268.001 30.3284 268.001 29.5C268.001 28.6715 268.437 28 268.976 28H270.191C269.999 26.9958 269.955 25.9872 270.048 25H268.976C268.437 25 268.001 24.3284 268.001 23.5C268.001 22.6715 268.437 22 268.976 22H270.778C271.689 19.7353 273.371 17.7657 275.658 16.481C280.103 13.9833 285.724 14.698 289.356 18.2227C289.646 18.4791 289.767 18.8695 289.67 19.2383C289.574 19.6072 289.182 20.0157 288.801 20.1071C288.755 20.1181 288.707 20.1306 288.656 20.1435L288.656 20.1435L288.656 20.1435C288.29 20.2377 287.832 20.3557 287.601 20.1071C285.345 17.8963 282.314 17.3957 279.201 18.1428C276.561 18.7764 275.043 19.8677 274.073 22H280.026C280.564 22 281.001 22.6715 281.001 23.5C281.001 24.3284 280.564 25 280.026 25H273.177C273.022 26.0406 273.051 27.0498 273.261 28H280.026C280.564 28 281.001 28.6715 281.001 29.5C281.001 30.3284 280.564 31 280.026 31H274.709C275.351 31.7944 276.182 32.4946 277.201 33.0714C280.919 35.1751 284.588 34.4135 287.601 31.5C287.85 31.2283 288.771 31.4134 289.168 31.4934L289.201 31.5C289.578 31.5756 289.825 32.0703 289.946 32.4254C290.067 32.7805 289.984 33.1713 289.728 33.4507C287.586 35.7215 284.557 37.0103 281.385 36.9999Z" fill="url(#paint8_linear)"/>
<path fill-rule="evenodd" clip-rule="evenodd" d="M60.3806 311.443C63.1014 310.87 65.6654 309.872 68 308.522V323.5C68 324.328 68.6716 325 69.5 325C70.3284 325 71 324.328 71 323.5V306.5L71 306.495C77.0871 301.737 81 294.325 81 286C81 271.641 69.3594 260 55 260C40.6406 260 29 271.641 29 286C29 293.438 32.1237 300.147 37.1308 304.886C37.0468 305.074 37 305.281 37 305.5V327.5C37 328.328 37.6716 329 38.5 329C39.3284 329 40 328.328 40 327.5V307.239C42.1207 308.74 44.476 309.931 47 310.746V314.5C47 315.328 47.6716 316 48.5 316C49.3284 316 50 315.328 50 314.5V311.52C51.618 311.835 53.2897 312 55 312C55.6729 312 56.3399 311.974 57 311.924V340.3C57 341.239 57.7611 342 58.7 342C59.6389 342 60.4 341.239 60.4 340.3V311.7C60.4 311.612 60.3934 311.527 60.3806 311.443ZM55 309C67.7025 309 78 298.703 78 286C78 273.297 67.7025 263 55 263C42.2975 263 32 273.297 32 286C32 298.703 42.2975 309 55 309ZM38.5 332C37.6716 332 37 332.672 37 333.5V342.5C37 343.328 37.6716 344 38.5 344C39.3284 344 40 343.328 40 342.5V333.5C40 332.672 39.3284 332 38.5 332ZM69.5 328C68.6716 328 68 328.672 68 329.5V332.5C68 333.328 68.6716 334 69.5 334C70.3284 334 71 333.328 71 332.5V329.5C71 328.672 70.3284 328 69.5 328ZM47 321.5C47 320.672 47.6716 320 48.5 320C49.3284 320 50 320.672 50 321.5V335.5C50 336.328 49.3284 337 48.5 337C47.6716 337 47 336.328 47 335.5V321.5ZM55.3847 297C51.0444 297.017 47.1524 294.64 45.2398 291H42.976C42.4375 291 42.001 290.328 42.001 289.5C42.001 288.672 42.4375 288 42.976 288H44.1906C43.9988 286.996 43.9549 285.987 44.048 285H42.976C42.4375 285 42.001 284.328 42.001 283.5C42.001 282.672 42.4375 282 42.976 282H44.7782C45.6895 279.735 47.3711 277.766 49.6578 276.481C54.1032 273.983 59.7239 274.698 63.3559 278.223C63.6457 278.479 63.7665 278.869 63.6701 279.238C63.5737 279.607 63.1817 280.016 62.801 280.107C62.755 280.118 62.7066 280.131 62.6564 280.144L62.6563 280.144L62.6562 280.144C62.2901 280.238 61.8318 280.356 61.601 280.107C59.345 277.896 56.3135 277.396 53.201 278.143C50.5614 278.776 49.0427 279.868 48.0728 282H54.026C54.5644 282 55.001 282.672 55.001 283.5C55.001 284.328 54.5644 285 54.026 285H47.1768C47.0222 286.041 47.0506 287.05 47.2613 288H54.026C54.5644 288 55.001 288.672 55.001 289.5C55.001 290.328 54.5644 291 54.026 291H48.7088C49.3506 291.794 50.1816 292.495 51.201 293.071C54.9191 295.175 58.5877 294.413 61.601 291.5C61.8502 291.228 62.7708 291.413 63.1685 291.493L63.201 291.5C63.5785 291.576 63.825 292.07 63.9462 292.425C64.0674 292.78 63.9842 293.171 63.7279 293.451C61.5865 295.722 58.5569 297.01 55.3847 297Z" fill="url(#paint9_linear)"/>
<path fill-rule="evenodd" clip-rule="evenodd" d="M310 304.133C313.939 303.265 317.642 301.769 321 299.756V321C321 322.105 321.895 323 323 323C324.105 323 325 322.105 325 321V297L325 296.985C333.53 290.207 339 279.742 339 268C339 247.565 322.435 231 302 231C281.565 231 265 247.565 265 268C265 278.846 269.667 288.602 277.101 295.369C277.036 295.568 277 295.78 277 296V327C277 328.105 277.895 329 279 329C280.105 329 281 328.105 281 327V298.467C284.036 300.564 287.4 302.218 291 303.337V309C291 310.105 291.895 311 293 311C294.105 311 295 310.105 295 309V304.339C297.267 304.773 299.607 305 302 305C303.351 305 304.686 304.928 306 304.786V346C306 347.105 306.895 348 308 348C309.105 348 310 347.105 310 346V304.133ZM302 301C320.225 301 335 286.225 335 268C335 249.775 320.225 235 302 235C283.775 235 269 249.775 269 268C269 286.225 283.775 301 302 301ZM279 333C277.895 333 277 333.895 277 335V349C277 350.105 277.895 351 279 351C280.105 351 281 350.105 281 349V335C281 333.895 280.105 333 279 333ZM323 328C321.895 328 321 328.895 321 330V334C321 335.105 321.895 336 323 336C324.105 336 325 335.105 325 334V330C325 328.895 324.105 328 323 328ZM291 318C291 316.895 291.895 316 293 316C294.105 316 295 316.895 295 318V339C295 340.105 294.105 341 293 341C291.895 341 291 340.105 291 339V318ZM302.506 284C296.106 284.025 290.377 280.448 287.657 275H285.35C284.604 275 284 274.105 284 273C284 271.895 284.604 271 285.35 271H286.293C286.03 269.663 285.947 268.32 286.032 267H285.35C284.604 267 284 265.881 284 264.5C284 263.119 284.604 262 285.35 262H287.201C288.539 258.782 290.948 255.988 294.202 254.154C300.648 250.521 308.798 251.561 314.065 256.688C314.485 257.061 314.66 257.628 314.52 258.165C314.38 258.701 313.812 259.296 313.26 259.429C313.193 259.445 313.123 259.463 313.05 259.482L313.05 259.482C312.519 259.619 311.855 259.79 311.52 259.429C308.249 256.213 303.853 255.485 299.34 256.571C295.588 257.475 293.398 259.018 291.988 262H300.65C301.396 262 302 263.119 302 264.5C302 265.881 301.396 267 300.65 267H290.545C290.388 268.386 290.456 269.73 290.748 271H300.65C301.396 271 302 271.895 302 273C302 274.105 301.396 275 300.65 275H292.614C293.571 276.268 294.847 277.381 296.44 278.286C301.831 281.346 307.151 280.238 311.52 276C311.881 275.605 313.216 275.874 313.793 275.99L313.84 276C314.387 276.11 314.745 276.83 314.921 277.346C315.096 277.863 314.976 278.431 314.604 278.837C311.499 282.14 307.106 284.015 302.506 284Z" fill="url(#paint10_linear)"/>
<defs>
<linearGradient id="paint0_linear" x1="-297.461" y1="-209.012" x2="-7.09727" y2="469.182" gradientUnits="userSpaceOnUse">
<stop stop-color="#50D3FB"/>
<stop offset="1" stop-color="#528EE7"/>
</linearGradient>
<linearGradient id="paint1_linear" x1="152.328" y1="21.9134" x2="54.433" y2="192.552" gradientUnits="userSpaceOnUse">
<stop stop-color="#50D2FB"/>
<stop offset="1" stop-color="#52A2ED"/>
</linearGradient>
<linearGradient id="paint2_linear" x1="155.193" y1="56.1153" x2="89.7376" y2="184.603" gradientUnits="userSpaceOnUse">
<stop stop-color="#50D2FB"/>
<stop offset="1" stop-color="#52A2ED"/>
</linearGradient>
<linearGradient id="paint3_linear" x1="167.109" y1="223.239" x2="158.853" y2="248.937" gradientUnits="userSpaceOnUse">
<stop stop-color="#50D2FB"/>
<stop offset="1" stop-color="#52A2ED"/>
</linearGradient>
<linearGradient id="paint4_linear" x1="146.758" y1="92.5191" x2="137.159" y2="121.201" gradientUnits="userSpaceOnUse">
<stop stop-color="#50D2FB"/>
<stop offset="1" stop-color="#52A2ED"/>
</linearGradient>
<linearGradient id="paint5_linear" x1="154.218" y1="86.9983" x2="136.443" y2="140.112" gradientUnits="userSpaceOnUse">
<stop stop-color="#50D2FB"/>
<stop offset="1" stop-color="#52A2ED"/>
</linearGradient>
<linearGradient id="paint6_linear" x1="170.315" y1="76.8399" x2="169.868" y2="82.4442" gradientUnits="userSpaceOnUse">
<stop stop-color="#50D2FB"/>
<stop offset="1" stop-color="#49CAFB"/>
</linearGradient>
<linearGradient id="paint7_linear" x1="33" y1="58" x2="3" y2="164" gradientUnits="userSpaceOnUse">
<stop stop-color="#50CFFA"/>
<stop offset="0.999201" stop-color="#52A2ED"/>
</linearGradient>
<linearGradient id="paint8_linear" x1="281" y1="0" x2="257.109" y2="83.9275" gradientUnits="userSpaceOnUse">
<stop stop-color="#50CFFA"/>
<stop offset="0.999201" stop-color="#52A2ED"/>
</linearGradient>
<linearGradient id="paint9_linear" x1="55" y1="260" x2="31.109" y2="343.928" gradientUnits="userSpaceOnUse">
<stop stop-color="#50CFFA"/>
<stop offset="0.999201" stop-color="#52A2ED"/>
</linearGradient>
<linearGradient id="paint10_linear" x1="302" y1="231" x2="267.758" y2="350.827" gradientUnits="userSpaceOnUse">
<stop stop-color="#50CFFA"/>
<stop offset="0.999201" stop-color="#52A2ED"/>
</linearGradient>
</defs>
</svg>

<svg width="339" height="351" fill="none" xmlns="http://www.w3.org/2000/svg"><path opacity=".128" fill-rule="evenodd" clip-rule="evenodd" d="M171 324c88.918 0 161-72.082 161-161S259.918 2 171 2 10 74.082 10 163s72.082 161 161 161z" fill="url(#paint0_linear)"/><path fill-rule="evenodd" clip-rule="evenodd" d="M137.156 68h69.688C218.528 68 228 77.551 228 89.333v149.334c0 11.782-9.472 21.333-21.156 21.333h-69.688C125.472 260 116 250.449 116 238.667V89.333C116 77.551 125.472 68 137.156 68zM207 256c9.389 0 17-7.663 17-17.116V89.116C224 79.663 216.389 72 207 72h-70c-9.389 0-17 7.663-17 17.116v149.768c0 9.453 7.611 17.116 17 17.116h70z" fill="url(#paint1_linear)"/><path fill-rule="evenodd" clip-rule="evenodd" d="M128.125 89h85.75A2.13 2.13 0 01216 91.137v132.726a2.13 2.13 0 01-2.125 2.137h-85.75a2.13 2.13 0 01-2.125-2.137V91.137A2.13 2.13 0 01128.125 89zM130 222h82V93h-82v129z" fill="url(#paint2_linear)"/><path fill-rule="evenodd" clip-rule="evenodd" d="M159 241.021c.012 6.619 5.381 11.979 12 11.979a12 12 0 0012-12.063c-.035-6.619-5.423-11.96-12.042-11.937-6.619.023-11.97 5.401-11.958 12.021zm3.676-3.426a9 9 0 018.324-5.571V232c4.942 0 8.959 3.98 8.999 8.915a8.984 8.984 0 01-5.488 8.372 9.008 9.008 0 01-9.84-1.885 8.98 8.98 0 01-1.995-9.807z" fill="url(#paint3_linear)"/><path d="M140.165 126a2.155 2.155 0 001.528-.625l22.79-22.819a2.156 2.156 0 00-.113-2.925 2.15 2.15 0 00-2.922-.113l-22.811 22.797a2.156 2.156 0 001.528 3.685z" fill="url(#paint4_linear)"/><path d="M140.174 149a2.16 2.16 0 001.534-.627l45.772-45.804a2.163 2.163 0 00-3.047-3.049l-45.794 45.782a2.163 2.163 0 001.535 3.698z" fill="url(#paint5_linear)"/><path d="M165.154 83h16.692c1.19 0 2.154-1.12 2.154-2.5s-.964-2.5-2.154-2.5h-16.692c-1.19 0-2.154 1.12-2.154 2.5s.964 2.5 2.154 2.5z" fill="url(#paint6_linear)"/><path fill-rule="evenodd" clip-rule="evenodd" d="M40 123.256a32.767 32.767 0 009-3.387V138a2 2 0 104 0v-20.749c7.901-6.029 13-15.545 13-26.251 0-18.225-14.775-33-33-33S0 72.775 0 91c0 9.43 3.955 17.936 10.297 23.95A1.99 1.99 0 0010 116v27a2 2 0 104 0v-25.015a32.877 32.877 0 009 4.473V127a2 2 0 104 0v-3.544a33.225 33.225 0 009 .409V159a2 2 0 104 0v-35.744zM33 120c16.016 0 29-12.984 29-29S49.016 62 33 62 4 74.984 4 91s12.984 29 29 29zm-21 29a2 2 0 00-2 2v11a2 2 0 104 0v-11a2 2 0 00-2-2zm39-5a2 2 0 00-2 2v3a2 2 0 104 0v-3a2 2 0 00-2-2zm-28-8a2 2 0 114 0v17a2 2 0 11-4 0v-17zm10.23-31c-5.566.022-10.543-3.163-12.862-8h-3.093C16.571 97 16 96.105 16 95s.57-2 1.275-2h1.871a13.782 13.782 0 01-.11-3h-1.761C16.571 90 16 89.105 16 88s.57-2 1.275-2h2.66a14.027 14.027 0 016.136-7.115c5.557-3.179 12.583-2.27 17.123 2.217a1.3 1.3 0 01.392 1.292c-.12.47-.61.99-1.086 1.106l-.18.046c-.459.12-1.032.27-1.32-.046-2.82-2.814-6.61-3.45-10.5-2.5-3.336.815-5.24 2.226-6.45 5h7.675c.704 0 1.275.895 1.275 2s-.57 2-1.275 2h-8.792a10.751 10.751 0 00.04 3h8.752c.704 0 1.275.895 1.275 2s-.57 2-1.275 2H24.61c.835 1.162 1.965 2.18 3.39 3 4.648 2.678 9.233 1.708 13-2 .312-.346 1.462-.11 1.96-.008L43 98c.472.096.78.726.932 1.178.151.452.047.949-.273 1.305A14.152 14.152 0 0133.229 105z" fill="url(#paint7_linear)"/><path fill-rule="evenodd" clip-rule="evenodd" d="M286.381 51.443A25.843 25.843 0 00294 48.522V63.5a1.5 1.5 0 003 0V46.495c6.087-4.758 10-12.17 10-20.495 0-14.36-11.641-26-26-26s-26 11.64-26 26c0 7.438 3.124 14.147 8.131 18.886a1.496 1.496 0 00-.131.614v22a1.5 1.5 0 003 0V47.24a25.915 25.915 0 007 3.506V54.5a1.5 1.5 0 003 0v-2.98a26.132 26.132 0 007 .404V80.3a1.7 1.7 0 103.4 0V51.7c0-.088-.007-.174-.019-.257zM281 49c12.703 0 23-10.297 23-23S293.703 3 281 3s-23 10.297-23 23 10.297 23 23 23zm-16.5 23a1.5 1.5 0 00-1.5 1.5v9a1.5 1.5 0 003 0v-9a1.5 1.5 0 00-1.5-1.5zm31-4a1.5 1.5 0 00-1.5 1.5v3a1.5 1.5 0 003 0v-3a1.5 1.5 0 00-1.5-1.5zM273 61.5a1.5 1.5 0 013 0v14a1.5 1.5 0 01-3 0v-14zm8.385-24.5c-4.341.017-8.233-2.36-10.145-6h-2.264c-.539 0-.975-.672-.975-1.5s.436-1.5.975-1.5h1.215a10.645 10.645 0 01-.143-3h-1.072c-.539 0-.975-.672-.975-1.5s.436-1.5.975-1.5h1.802a11.08 11.08 0 014.88-5.519c4.445-2.498 10.066-1.783 13.698 1.742.29.256.411.646.314 1.015-.096.37-.488.778-.869.87-.046.01-.094.023-.145.035-.366.095-.824.213-1.055-.036-2.256-2.21-5.287-2.711-8.4-1.964-2.64.633-4.158 1.725-5.128 3.857h5.953c.538 0 .975.672.975 1.5s-.437 1.5-.975 1.5h-6.849a8.238 8.238 0 00.084 3h6.765c.538 0 .975.672.975 1.5s-.437 1.5-.975 1.5h-5.317c.642.794 1.473 1.495 2.492 2.071 3.718 2.104 7.387 1.343 10.4-1.571.249-.272 1.17-.087 1.567-.007l.033.007c.377.076.624.57.745.925.121.356.038.746-.218 1.026-2.142 2.27-5.171 3.56-8.343 3.549z" fill="url(#paint8_linear)"/><path fill-rule="evenodd" clip-rule="evenodd" d="M60.38 311.443a25.857 25.857 0 007.62-2.921V323.5a1.5 1.5 0 003 0v-17.005c6.087-4.758 10-12.17 10-20.495 0-14.359-11.64-26-26-26s-26 11.641-26 26c0 7.438 3.124 14.147 8.13 18.886-.083.188-.13.395-.13.614v22a1.5 1.5 0 003 0v-20.261a25.883 25.883 0 007 3.507v3.754a1.5 1.5 0 003 0v-2.98a26.146 26.146 0 007 .404V340.3a1.7 1.7 0 103.4 0v-28.6c0-.088-.007-.173-.02-.257zM55 309c12.703 0 23-10.297 23-23s-10.297-23-23-23-23 10.297-23 23 10.297 23 23 23zm-16.5 23a1.5 1.5 0 00-1.5 1.5v9a1.5 1.5 0 003 0v-9a1.5 1.5 0 00-1.5-1.5zm31-4a1.5 1.5 0 00-1.5 1.5v3a1.5 1.5 0 003 0v-3a1.5 1.5 0 00-1.5-1.5zM47 321.5a1.5 1.5 0 013 0v14a1.5 1.5 0 01-3 0v-14zm8.385-24.5c-4.34.017-8.233-2.36-10.145-6h-2.264c-.538 0-.975-.672-.975-1.5s.437-1.5.975-1.5h1.215a10.648 10.648 0 01-.143-3h-1.072c-.538 0-.975-.672-.975-1.5s.437-1.5.975-1.5h1.802a11.082 11.082 0 014.88-5.519c4.445-2.498 10.066-1.783 13.698 1.742.29.256.41.646.314 1.015-.096.369-.488.778-.869.869l-.145.037c-.366.094-.824.212-1.055-.037-2.256-2.211-5.288-2.711-8.4-1.964-2.64.633-4.158 1.725-5.128 3.857h5.953c.538 0 .975.672.975 1.5s-.437 1.5-.975 1.5h-6.85a8.23 8.23 0 00.085 3h6.765c.538 0 .975.672.975 1.5s-.437 1.5-.975 1.5h-5.317c.642.794 1.473 1.495 2.492 2.071 3.718 2.104 7.387 1.342 10.4-1.571.25-.272 1.17-.087 1.568-.007l.032.007c.377.076.624.57.745.925.121.355.038.746-.218 1.026-2.142 2.271-5.171 3.559-8.343 3.549z" fill="url(#paint9_linear)"/><path fill-rule="evenodd" clip-rule="evenodd" d="M310 304.133a36.775 36.775 0 0011-4.377V321a2 2 0 104 0v-24.015c8.53-6.778 14-17.243 14-28.985 0-20.435-16.565-37-37-37s-37 16.565-37 37c0 10.846 4.667 20.602 12.101 27.369A2.029 2.029 0 00277 296v31a2 2 0 104 0v-28.533a36.827 36.827 0 0010 4.87V309a2 2 0 104 0v-4.661c2.267.434 4.607.661 7 .661 1.351 0 2.686-.072 4-.214V346a2 2 0 104 0v-41.867zM302 301c18.225 0 33-14.775 33-33s-14.775-33-33-33-33 14.775-33 33 14.775 33 33 33zm-23 32a2 2 0 00-2 2v14a2 2 0 104 0v-14a2 2 0 00-2-2zm44-5a2 2 0 00-2 2v4a2 2 0 104 0v-4a2 2 0 00-2-2zm-32-10a2 2 0 114 0v21a2 2 0 11-4 0v-21zm11.506-34c-6.4.025-12.129-3.552-14.849-9h-2.307c-.746 0-1.35-.895-1.35-2s.604-2 1.35-2h.943a15.537 15.537 0 01-.261-4h-.682c-.746 0-1.35-1.119-1.35-2.5s.604-2.5 1.35-2.5h1.851c1.338-3.218 3.747-6.012 7.001-7.846 6.446-3.633 14.596-2.593 19.863 2.534.42.373.595.94.455 1.477-.14.536-.708 1.131-1.26 1.264a10.85 10.85 0 00-.21.053c-.531.137-1.195.308-1.53-.053-3.271-3.216-7.667-3.944-12.18-2.858-3.752.904-5.942 2.447-7.352 5.429h8.662c.746 0 1.35 1.119 1.35 2.5s-.604 2.5-1.35 2.5h-10.105a11.852 11.852 0 00.203 4h9.902c.746 0 1.35.895 1.35 2s-.604 2-1.35 2h-8.036c.957 1.268 2.233 2.381 3.826 3.286 5.391 3.06 10.711 1.952 15.08-2.286.361-.395 1.696-.126 2.273-.01l.047.01c.547.11.905.83 1.081 1.346a1.492 1.492 0 01-.317 1.491c-3.105 3.303-7.498 5.178-12.098 5.163z" fill="url(#paint10_linear)"/><defs><linearGradient id="paint0_linear" x1="-297.461" y1="-209.012" x2="-7.097" y2="469.182" gradientUnits="userSpaceOnUse"><stop stop-color="#50D3FB"/><stop offset="1" stop-color="#528EE7"/></linearGradient><linearGradient id="paint1_linear" x1="152.328" y1="21.913" x2="54.433" y2="192.552" gradientUnits="userSpaceOnUse"><stop stop-color="#50D2FB"/><stop offset="1" stop-color="#52A2ED"/></linearGradient><linearGradient id="paint2_linear" x1="155.193" y1="56.115" x2="89.738" y2="184.603" gradientUnits="userSpaceOnUse"><stop stop-color="#50D2FB"/><stop offset="1" stop-color="#52A2ED"/></linearGradient><linearGradient id="paint3_linear" x1="167.109" y1="223.239" x2="158.853" y2="248.937" gradientUnits="userSpaceOnUse"><stop stop-color="#50D2FB"/><stop offset="1" stop-color="#52A2ED"/></linearGradient><linearGradient id="paint4_linear" x1="146.758" y1="92.519" x2="137.159" y2="121.201" gradientUnits="userSpaceOnUse"><stop stop-color="#50D2FB"/><stop offset="1" stop-color="#52A2ED"/></linearGradient><linearGradient id="paint5_linear" x1="154.218" y1="86.998" x2="136.443" y2="140.112" gradientUnits="userSpaceOnUse"><stop stop-color="#50D2FB"/><stop offset="1" stop-color="#52A2ED"/></linearGradient><linearGradient id="paint6_linear" x1="170.315" y1="76.84" x2="169.868" y2="82.444" gradientUnits="userSpaceOnUse"><stop stop-color="#50D2FB"/><stop offset="1" stop-color="#49CAFB"/></linearGradient><linearGradient id="paint7_linear" x1="33" y1="58" x2="3" y2="164" gradientUnits="userSpaceOnUse"><stop stop-color="#50CFFA"/><stop offset=".999" stop-color="#52A2ED"/></linearGradient><linearGradient id="paint8_linear" x1="281" y1="0" x2="257.109" y2="83.927" gradientUnits="userSpaceOnUse"><stop stop-color="#50CFFA"/><stop offset=".999" stop-color="#52A2ED"/></linearGradient><linearGradient id="paint9_linear" x1="55" y1="260" x2="31.109" y2="343.928" gradientUnits="userSpaceOnUse"><stop stop-color="#50CFFA"/><stop offset=".999" stop-color="#52A2ED"/></linearGradient><linearGradient id="paint10_linear" x1="302" y1="231" x2="267.758" y2="350.827" gradientUnits="userSpaceOnUse"><stop stop-color="#50CFFA"/><stop offset=".999" stop-color="#52A2ED"/></linearGradient></defs></svg>
